X: 12546
T: Farewell To Lisheen
R: jig
M: 6/8
K: Dmajor
|:A|dcB cBA|d2F FED|d2B cBA|BAF E2A|
ded cBA|BAF AFE|DEF A2F|EFE D2:|
|:F|DEF A2A|BAF AFE|DEF A2A|BAF E2F|
DEF A2A|BAF AFE|DEF A2F|EFE D2:|

